X: 1
T: The Man Of The House
R: reel
M: 4/4
L: 1/8
K: Emin
|:E2BE GABG|E2BE FDAD|E2BE GABc|1dBcA BGED:|2dBcA BGE2||
|e2ge f2af|gfed edBd|e2ge f2af|gfed Beed|
efge fgaf|gfed efga|bgaf gfed|edBA GEED|


Tune 222	Setting 30123

